X: 99
M:4/4
L:1/8
K:G
|:B|cecA (3cde cA|BdBG (3Bcd BG|cecA cege|dBGB A2 A:|
|:B|cdef sgasge|gage dBGB|cdef gbge|dBGB A2 A:||

